!!!OTL: Kaiser Joseph
!!!ARE: Europa, Mitteleuropa, Deutschland, Franken
!!!SCT: E0334
!!!YEM: Copyright 1995, estate of Helmut Schaffrath.
**kern
*ICvox
*Ivox
*M4/4
*k[f#]
*G:
=1
{4g
8g
8b
4g
8g
8b
=2
4b
4dd
2b}
=3
{4.a
8b
8dd
8cc
8b
8a
=4
2a
4g
4r}
=5
{4g
8g
8b
4g
8g
8b
=6
4b
4dd
2b}
=7
{4.a
8b
8dd
8cc
8b
8a
=8
2a
4g
4r}
=9
{4.a
8g
4f#
4g
=10
4.a
8b
2cc}
=11
{4dd
8dd
8ee
4dd
8cc
8b
=12
2b
4a
4r}
=13
{4g
8g
8b
4g
8g
8b
=14
4b
4dd
2b}
=15
{4.a
8b
8dd
8cc
8b
8a
=16
2a
4g
4r}
==
!!!AGN: historisches Lied, Bayrischer Erbfolgekrieg (1778)
!!!ONB: ESAC (Essen Associative Code) Database: ERK1
!!!AMT: simple quadruple
!!!AIN: vox
!!!EED: Helmut Schaffrath
!!!EEV: 1.0
*-
